X:35
T:Goodbye, My Love, Goodbye
M:C|
L:1/4
Q:1/4=90
K:FDor
E|\
G>G EF|G E2 F|G>G EF|G3 G|
AA G/F/E|F2 DE|F>F DE|E6||
